dist/images/icons/tactic.svg

<svg xmlns="http://www.w3.org/2000/svg" width="732" height="717" fill="none"><g opacity=".1"><path stroke="#0039C8" stroke-linecap="round" stroke-linejoin="round" stroke-width="29.593" d="m272.526 316.738 52.307-93.958M252.651 243.335l93.957 52.307M496.755 450.542l52.307-93.957M476.88 377.14l93.957 52.307"/><path fill="#0039C8" d="M393.104 527.184c.731 5.413 5.711 9.208 11.124 8.478s9.209-5.711 8.478-11.124zM550.42 105.985c-.556-5.434-5.412-9.388-10.845-8.832l-88.547 9.06c-5.434.556-9.388 5.412-8.832 10.845s5.412 9.388 10.845 8.832l78.709-8.053 8.053 78.708c.556 5.434 5.412 9.388 10.845 8.832s9.388-5.412 8.832-10.845zM412.706 524.538c-11.145-82.565-15.878-136.832.916-194.428 16.853-57.8 55.715-119.971 134.628-216.874l-15.337-12.49c-79.129 97.168-120.239 161.951-138.28 223.828-18.102 62.081-12.651 120.214-1.529 202.61zM337.381 557.298c3.819 3.905 10.081 3.973 13.985.154s3.973-10.082.154-13.986zM192.299 122.5c-3.692-4.026-9.948-4.296-13.974-.604l-65.596 60.164c-4.026 3.692-4.296 9.948-.604 13.973s9.948 4.296 13.973.604l58.309-53.479 53.479 58.308c3.691 4.026 9.948 4.296 13.973.604s4.296-9.948.604-13.973zM351.52 543.466c-58.521-59.819-99.676-101.335-125.476-158.598-25.72-57.085-36.53-130.808-31.153-255.257l-19.761-.853c-5.427 125.598 5.281 202.981 32.88 264.236 27.519 61.077 71.486 105.136 129.371 164.304z"/><circle cx="394.242" cy="602.448" r="42.575" fill="#0039C8" stroke="#0039C8" stroke-width="1.978" transform="rotate(-15.895 394.242 602.448)"/><circle cx="585.562" cy="53.831" r="42.575" fill="#0039C8" stroke="#0039C8" stroke-width="1.978" transform="rotate(-15.895 585.562 53.83)"/></g></svg>

<svg width="732" height="717" viewBox="0 0 732 717" fill="none" xmlns="http://www.w3.org/2000/svg">
<g opacity="0.1">
<path d="M272.526 316.738L324.833 222.78" stroke="#0039C8" stroke-width="29.5927" stroke-linecap="round" stroke-linejoin="round"/>
<path d="M252.651 243.335L346.608 295.642" stroke="#0039C8" stroke-width="29.5927" stroke-linecap="round" stroke-linejoin="round"/>
<path d="M496.755 450.542L549.062 356.585" stroke="#0039C8" stroke-width="29.5927" stroke-linecap="round" stroke-linejoin="round"/>
<path d="M476.88 377.14L570.837 429.447" stroke="#0039C8" stroke-width="29.5927" stroke-linecap="round" stroke-linejoin="round"/>
<path d="M393.104 527.184C393.835 532.597 398.815 536.392 404.228 535.662C409.641 534.931 413.437 529.951 412.706 524.538L393.104 527.184ZM550.42 105.985C549.864 100.551 545.008 96.5969 539.575 97.1528L451.028 106.213C445.594 106.769 441.64 111.625 442.196 117.058C442.752 122.492 447.608 126.446 453.041 125.89L531.75 117.837L539.803 196.545C540.359 201.979 545.215 205.933 550.648 205.377C556.082 204.821 560.036 199.965 559.48 194.532L550.42 105.985ZM412.706 524.538C401.561 441.973 396.828 387.706 413.622 330.11C430.475 272.31 469.337 210.139 548.25 113.236L532.913 100.746C453.784 197.914 412.674 262.697 394.633 324.574C376.531 386.655 381.982 444.788 393.104 527.184L412.706 524.538Z" fill="#0039C8"/>
<path d="M337.381 557.298C341.2 561.203 347.462 561.271 351.366 557.452C355.271 553.632 355.339 547.37 351.52 543.466L337.381 557.298ZM192.299 122.5C188.607 118.474 182.351 118.204 178.325 121.896L112.729 182.06C108.703 185.752 108.433 192.008 112.125 196.033C115.817 200.059 122.073 200.329 126.098 196.637L184.407 143.158L237.886 201.466C241.577 205.492 247.834 205.762 251.859 202.07C255.884 198.378 256.155 192.122 252.463 188.097L192.299 122.5ZM351.52 543.466C292.999 483.647 251.844 442.131 226.044 384.868C200.324 327.783 189.514 254.06 194.891 129.611L175.13 128.758C169.703 254.356 180.411 331.739 208.01 392.994C235.529 454.071 279.496 498.13 337.381 557.298L351.52 543.466Z" fill="#0039C8"/>
<circle cx="394.242" cy="602.448" r="42.5753" transform="rotate(-15.8949 394.242 602.448)" fill="#0039C8" stroke="#0039C8" stroke-width="1.97798"/>
<circle cx="585.562" cy="53.8308" r="42.5753" transform="rotate(-15.8949 585.562 53.8308)" fill="#0039C8" stroke="#0039C8" stroke-width="1.97798"/>
</g>
</svg>
